X:514
T:Kempshott Hunt
M:4/4
L:1/8
K:G
|: d4 BA G2 | BA G2 B2 d2 | BA G2 B2 d2 | c2 A2 A4 | 
B2 d2 BA G2 | B2 d2 d4 | c2 e2 d3 c | B2 G2 G4 :| 
|: dc | B2 d2 d3 d | e2 c2 d3 c | B2 d2 d2 B2 | c2 A2 A2 dc | 
B2 d2 d3 d | e2 c2 d3 c | B2 d2 A3 B | A2 G2 G2 :|| 
|: d2 | g2 ge d2 Bd | g2 ge d2 B2 | g2 ge d2 Bd | c2 A2 A2 d2 | 
g2 ge d2 Bd | g2 ge d2 B2 | c2 e2 d3 c | B2 G2 G2 :| 

